X: 2
T:Ragtime Annie
C:Old-Time, New England, Bluegrass
R:reel
M:C|
K:D
P:A
uF-E \
|: "D"vDFBF AFBF | D-FB-F A2F-E | DEFG ABAF | "A"A2[c2E2] [c2E2]c-B |
   "A"ABcA B2c-B | ABcA BAcB | ABcd egfe |\
  [1 "D"d2d-c d2F-E :|[2 "D" d2d-c d2f-g ||
P:B
|| "D"a2a-b a-fd-B | [A6e6] f-g | a2ab agf2 | "G(Em)"[g6B6] e-f |
   "A"g-fe-f g-fe-f | gagf e2e-f | gagf edcB | "D"[A6e6] f-g |
   "D"a2a-b a-fd-B | A2A-B A2A2 | [d4F4] "C"[=c4E4] | "G"[B6G6] A2 |
   "G"B2b2 b2a-g | "D"f2a2 a2g-f | "A"A2e-f gfec | "D"d2=c2 "D7"B2A2 ||
P:C
K:G
|:  "G"[B6G6] A-B | "C"[c6E6] c-B | "D"A2f2 f2e-f | "G"gfga g2d-c |
   "G"D2B2 B2A-B | "C"E2c2 c2c-B | "D"A2f2 f2e-f |\
[1 "G"gfga g2d-c :|[2 "G"[g6B6] F-E |]
N:Fiddlers Fakebook pg 225 - adapted by Peter Ostapenko
N:SDFH - play all three parts for 48 bar dance
N:Last update - PO 4/29/2007.
N:AB - D Major, C - G Major
